img/meet/apple.svg

<svg width="65" height="65" viewBox="0 0 65 65" fill="none" xmlns="http://www.w3.org/2000/svg">
<g id="Group 48095397">
<rect id="Rectangle 39360" x="1.36206" y="1" width="63" height="63" rx="31.5" fill="black" stroke="#A6A6A6" stroke-width="1.21368"/>
<g id="Vector">
<path d="M42.7598 32.2719C42.7123 27.2185 47.0827 24.76 47.2826 24.6456C44.8074 21.1915 40.9711 20.7195 39.6229 20.6819C36.4009 20.3573 33.2754 22.5273 31.6341 22.5273C29.9599 22.5273 27.4324 20.7132 24.7083 20.7666C21.2028 20.8183 17.9234 22.7609 16.1248 25.7776C12.4129 31.9285 15.1813 40.9676 18.7375 45.9394C20.5165 48.3744 22.5952 51.0932 25.316 50.9975C27.9779 50.8925 28.9722 49.3732 32.1845 49.3732C35.3672 49.3732 36.3009 50.9975 39.0758 50.9364C41.9326 50.8925 43.7312 48.4905 45.4479 46.0335C47.5037 43.2426 48.3293 40.4941 48.3621 40.353C48.2949 40.331 42.8139 38.3288 42.7598 32.2719Z" fill="white"/>
<path d="M37.518 17.4112C38.9497 15.6975 39.9293 13.366 39.6573 11C37.5852 11.0878 34.9937 12.3719 33.5015 14.048C32.1812 15.525 31.0018 17.9459 31.3064 20.2225C33.6341 20.3887 36.0241 19.0983 37.518 17.4112Z" fill="white"/>
</g>
</g>
</svg>

<svg xmlns="http://www.w3.org/2000/svg" width="65" height="65" fill="none"><rect width="63" height="63" x="1.362" y="1" fill="#000" stroke="#A6A6A6" stroke-width="1.214" rx="31.5"/><g fill="#fff"><path d="M42.76 32.272c-.048-5.053 4.323-7.512 4.523-7.626-2.476-3.454-6.312-3.927-7.66-3.964-3.222-.325-6.348 1.845-7.989 1.845-1.674 0-4.202-1.814-6.926-1.76-3.505.051-6.785 1.994-8.583 5.01-3.712 6.151-.944 15.19 2.613 20.162 1.779 2.435 3.857 5.154 6.578 5.059 2.662-.105 3.656-1.625 6.869-1.625 3.182 0 4.116 1.625 6.89 1.563 2.858-.044 4.656-2.446 6.373-4.903 2.056-2.79 2.881-5.539 2.914-5.68-.067-.022-5.548-2.024-5.602-8.081ZM37.518 17.411c1.432-1.714 2.411-4.045 2.14-6.411-2.073.088-4.664 1.372-6.157 3.048-1.32 1.477-2.5 3.898-2.195 6.175 2.328.166 4.718-1.125 6.212-2.812Z"/></g></svg>
